X:2
T:Love Will You Marry Me?
M:C|
K:G
|DDDD DEGE|EGDD DDDD|DEGE EEGD|DDDD DEGA|BBCG EEGA|BBCG EEEE|EEEG DDEG|ABcD dedB|GGGG|

|:"G"D2DE GAB2|"C"GE E2 GE E2|"G"D2DE GABc|"D"dedB A2 "G"G2:||
G D D D E G A B B C G E E E G E E E G D D D E G A B c D d e d B A2 G G2

